X:1
T:How You Will Love Him!
T:Bentley DeForest Ackley
T:How You Will Love Him!
T:Public Domain
T:Public Domain
T:Public Domain
C:Bentley DeForest Ackley
Z:Public Domain
%%score ( 1 2 ) ( 3 4 )
L:1/8
M:4/4
K:Ab
V:1 treble 
V:2 treble 
V:3 bass 
V:4 bass 
V:1
 [CE]2 [CE]2 [DF]2 [EG][EA] | [EB]2 [Ee]2 [Fd]2 [Ec]2 | [=Ec]2 [EG][GB] [FA]2 [CF][CG] | %3
w: 1.~Ye who wan- der, of|sin grown wear- y,|Lone- ly and far from the|
w: 2.~Come, and com- ing, find|peace and par- don|Wait- ing for you at the|
w: 3.~You should know of this|love so ten- der,|Love that is stead- fast, and|
w: 4.~Come, and find that you|can- not fa- thom|Love li- ke Christ’s till you|
 [CA]2 [=DB]2 [_DB]4 | [CE]2 [CE]2 [DF]2 [EG][EA] | [EB]2 [Ee]2 [Fd]2 [Ec]2 | %6
w: safe home- fold,|Come and learn what the|love of Christ is,|
w: place of prayer;|Kneel and ask for a|soul for- giv- en,|
w: deep, and true;|Come and share in its|sweet- ness with me,|
w: taste and see;|Height and depths of the|love of Je- sus|
 [Ec]2 [^Fe]2 [Ge]2 [EG][=FA] | [=DG]2 [DF]2 E4 ||"^Refrain" [Ge]2 [G=d][Ge] [G_d][EG][Gc][EB] | %9
w: Love whose glad- ness can|ne’er be told.||
w: Christ is yearn- ing to|meet you there.|how you’ll love Him when you know|
w: Come, and find that my|Christ loves you.||
w: No man knows till it|sets Him free.||
 [EA]4 [Ac]4 | [AB][AB][A=d][Ac] [AB][=DA][DG][DF] | (ECCD E2) z2 | %12
w: |||
w: Him! Know|the Christ Who died to set you free;|On * * * *|
w: |||
w: |||
 [CE]2 [=B,=D][CE] [_DF][FA][Fd][Af] | [Ae]4 [Ac]4 | [Gc][GB][^F=A][GB] [Ge]3 [EG] | [EA]8 |] %16
w: ||||
w: v’ry’s cross His heart was brok- en,|Brok- en|there for you, for me! *||
w: ||||
w: ||||
V:2
 x8 | x8 | x8 | x8 | x8 | x8 | x8 | x4 E4 || x8 | x8 | x8 | E6 x2 | x8 | x8 | x8 | x8 |] %16
w: ||||||||||||||||
w: |||||||O,||||Cal-|||||
V:3
 [A,,A,]2 [A,,A,]2 [D,A,]2 [D,B,][C,A,] | ([E,G,][F,A,])([G,B,][E,G,]) A,2 A,2 | %2
w: ~ ~ ~ ~ ~|~ * ~ * ~ ~|
 [C,G,]2 [C,C][C,C] [F,C]2 [F,A,][F,B,] | [F,A,]2 [B,,A,]2 [E,G,]4 | %4
w: ~ ~ ~ ~ ~ ~|~ ~ ~|
 [A,,A,]2 [A,,A,]2 [D,A,]2 [D,B,][C,A,] | ([E,G,][F,A,])([G,B,][E,G,]) A,2 A,2 | %6
w: ~ ~ ~ ~ ~|~ * ~ * ~ ~|
 [A,,A,]2 [=A,,C]2 [B,,B,]2 [B,,B,][B,,B,] | [B,,B,]2 [B,,A,]2 [E,G,]4 || %8
w: ~ ~ ~ ~ ~|~ ~ ~|
 [E,B,]2 [E,B,][E,B,] [E,B,][E,B,][E,E][E,D] | [A,C]4 [A,E]4 | %10
w: ~ ~ ~ ~ ~ ~ ~|~ ~|
 [B,=D][B,D][B,F][B,E] [B,,D][B,,C][B,,B,][B,,A,] | G,G,G,A, B,2 z2 | %12
w: ~ ~ ~ ~ ~ to set you|free * * * *|
 [A,,A,]2 [A,,A,][A,,A,] [D,A,][D,D][D,A,][D,D] | [A,C]4 [A,E]4 | %14
w: ||
 [E,E][E,D][E,C][D,D] [E,B,]3 [E,D] | [A,,A,C]8 |] %16
w: ||
V:4
 x8 | x4 A,2 A,2 | x8 | x8 | x8 | x4 A,2 A,2 | x8 | x8 || x8 | x8 | x8 | E,6 x2 | x8 | x8 | x8 | %15
w: |~ ~||||~ ~||||||||||
 x8 |] %16
w: |

